X:1622
L:1/8
Q:1/2=75
M:4/4
K:D
 D | F<A AB/c/ d>edc | BA Bc/d/ e>feD | F<A AB/c/ d>efe | d/c/B/A/ dF E2 D :: a/g/ | 
 fa df/g/ a/g/f/g/ ag/f/ | gb ef/g/ b/a/g/a/ ba/g/ | fa df/g/ a/g/f/g/ ad | Adfd e2 d a/g/ | 
 fa df/g/ a/g/f/g/ b/a/g/f/ | gb ef/g/ b/a/g/a/ ba/g/ | faef d>efe | d/c/B/A/ dF E2 D :|

